X: 23
M:9/8
L:1/8
K:D
vABA A2G F2G | ABA A2B cBA | ABA A2G F2G | A2d d2c d3 |
 ABA A2G F2G | ABA A2B cBA | ABA A2G F2G | A2d d2c d3 |]


